X: 1
T: The New Copperplate
R: reel
M: 4/4
L: 1/8
K: Gmaj
G2dG BGdG|~G2dc BGGB|A2eA cAeA|
~A2ed cAFA|G2dG BGdG|~G2dc BGG2|
ABcd efge|1 aged cAFA:|2 aged ^cdef||
|:g2 gf g2ef|gedc BGGB|Aaag agea|
aged ^cdef|g2 gf g2ef|gedc BGGB|
ABcd efge|1 aged ^cdef:|2 aged cAFA||


Tune 887	Setting 29979

